static/favicon.svg

<svg xmlns="http://www.w3.org/2000/svg" version="1.1" xmlns:xlink="http://www.w3.org/1999/xlink" xmlns:svgjs="http://svgjs.com/svgjs" width="100" height="100"><svg width="100" height="100" viewBox="0 0 100 100" fill="none" xmlns="http://www.w3.org/2000/svg">
<path d="M31.4146 33.4256C30.5041 33.1644 29.5608 32.7721 28.5854 32.2494C27.6749 31.6614 26.8293 31.0079 26.0487 30.2891C25.3333 29.5049 24.7805 28.6557 24.3903 27.7406C23.9999 26.8259 23.9025 25.8459 24.0976 24.8004C24.4877 22.6439 25.7235 20.6185 27.8048 18.7235C29.8861 16.8285 32.6828 15.3255 36.1952 14.2147V13.9206C36.2601 13.2019 36.7155 12.4831 37.5608 11.7644C38.4716 10.9801 39.5772 10.4574 40.8781 10.1961C42.1139 9.93462 42.9919 9.93462 43.5122 10.1961C44.0975 10.4574 44.3903 10.8167 44.3903 11.2742C44.3903 11.405 44.3578 11.5684 44.2926 11.7644C44.2926 11.8949 44.2926 12.0256 44.2926 12.1564V12.6465C47.4797 12.385 51.0243 12.4831 54.9269 12.9404C59.6098 13.5286 63.4147 14.6393 66.3413 16.2731C69.2682 17.9066 71.4796 19.8016 72.9757 21.9578C74.4714 24.0488 75.3822 26.2379 75.7072 28.5249C76.0976 30.8119 76.0976 32.9029 75.7072 34.7979C75.317 37.0196 74.6016 39.0451 73.5609 40.8748C72.5203 42.6391 71.2845 44.2399 69.8537 45.6774C68.4226 47.0497 66.8292 48.2585 65.0731 49.304C63.317 50.3495 61.4633 51.2316 59.5121 51.9504C61.5934 52.4079 63.3495 53.1593 64.7803 54.2048C66.2764 55.185 67.4797 56.3613 68.3902 57.7332C69.3009 59.1055 69.9511 60.6411 70.3416 62.3401C70.7318 64.0391 70.8616 65.7707 70.7317 67.5349C70.6016 70.2792 69.8862 72.8603 68.5852 75.278C67.3495 77.6305 65.6584 79.6886 63.5121 81.4531C61.3659 83.2174 58.7967 84.5896 55.8049 85.5696C52.8781 86.5498 49.626 86.9744 46.0486 86.844H44.8781C43.9024 87.6932 42.8293 88.3141 41.6585 88.7061C40.5529 89.1636 39.4798 89.4903 38.4391 89.6863C37.2683 89.9476 36.0975 90.0457 34.9267 89.9805C34.9267 89.523 34.9267 89.0328 34.9267 88.5101C34.9919 88.0526 35.0244 87.5953 35.0244 87.1378C35.0244 86.6151 35.0569 86.0923 35.1218 85.5696C34.3414 85.4391 33.5936 85.2428 32.8782 84.9816C32.2277 84.7856 31.5447 84.5567 30.8293 84.2955C30.1788 84.0995 29.5936 83.8706 29.0733 83.6094C28.813 83.2174 28.6179 82.7272 28.4877 82.1393C28.3576 81.6165 28.2602 81.0282 28.1949 80.3747C28.1949 79.7867 28.3251 79.1006 28.5854 78.3166C30.6015 79.1006 32.9106 79.6886 35.5122 80.0809C35.6421 76.7484 35.7398 72.795 35.8047 68.2211C35.9349 63.6468 36.0001 58.8442 36.0001 53.8128C36.0001 48.1278 36.0001 42.5409 36.0001 37.0522C36.0651 31.5633 36.0975 26.8585 36.0975 22.9381C34.2113 23.918 32.748 25.2577 31.7073 26.9567C30.6667 28.6557 30.569 30.8119 31.4146 33.4256ZM61.4633 68.0251C61.7236 65.1498 61.3007 62.8629 60.1951 61.1639C59.0895 59.3996 57.6259 58.0929 55.8049 57.2434C54.0489 56.3284 52.0974 55.773 49.9512 55.577C47.8699 55.381 45.9837 55.3484 44.2926 55.4791C44.4227 60.9026 44.5204 65.8359 44.5853 70.2792C44.6503 74.6574 44.7155 78.2511 44.7804 81.0609C46.7968 81.1264 48.7479 80.8975 50.6342 80.3747C52.5204 79.852 54.2112 79.0354 55.7072 77.9244C57.2682 76.8136 58.5692 75.4414 59.6098 73.8079C60.6505 72.1089 61.2682 70.1813 61.4633 68.0251ZM44.0975 20.6837C43.9673 24.0162 43.9024 27.9695 43.9024 32.5435C43.9024 37.1175 43.9673 42.2142 44.0975 47.8339C44.0975 48.3567 44.0975 48.8794 44.0975 49.4022C44.0975 49.8594 44.1299 50.3495 44.1952 50.8723C46.5365 50.6763 48.9755 50.1209 51.5122 49.2062C54.0489 48.2259 56.3577 46.9518 58.439 45.3836C60.5853 43.8153 62.3413 41.9856 63.7072 39.8946C65.0731 37.7384 65.7561 35.3859 65.7561 32.8376C65.7561 30.8771 65.2357 29.1455 64.1951 27.6428C63.1544 26.0745 61.7561 24.7675 60 23.722C58.3089 22.6766 56.3253 21.8926 54.0489 21.3698C51.8374 20.8471 49.5286 20.5856 47.122 20.5856C46.6017 20.5856 46.0814 20.5856 45.5611 20.5856C45.1057 20.5856 44.6178 20.6185 44.0975 20.6837Z" fill="#0065FC"></path>
</svg><style>@media (prefers-color-scheme: light) { :root { filter: none; } }
</style></svg>

<svg xmlns="http://www.w3.org/2000/svg" xmlns:xlink="http://www.w3.org/1999/xlink" xmlns:svgjs="http://svgjs.com/svgjs" width="100" height="100"><svg width="100" height="100" viewBox="0 0 100 100" fill="none" xmlns="http://www.w3.org/2000/svg"><path d="M31.415 33.426a14.469 14.469 0 0 1-2.83-1.177 18.762 18.762 0 0 1-2.536-1.96 9.021 9.021 0 0 1-1.659-2.548c-.39-.915-.488-1.895-.292-2.94.39-2.157 1.626-4.182 3.707-6.077 2.081-1.896 4.878-3.399 8.39-4.51v-.293c.065-.72.52-1.438 1.366-2.157.91-.784 2.016-1.307 3.317-1.568 1.236-.261 2.114-.261 2.634 0 .585.261.878.62.878 1.078 0 .131-.032.294-.097.49v.882c3.187-.261 6.731-.163 10.634.294 4.683.589 8.488 1.7 11.414 3.333 2.927 1.634 5.139 3.529 6.635 5.685 1.495 2.09 2.406 4.28 2.731 6.567.39 2.287.39 4.378 0 6.273-.39 2.222-1.105 4.247-2.146 6.077a24.22 24.22 0 0 1-3.707 4.802 26.36 26.36 0 0 1-4.78 3.627 33.443 33.443 0 0 1-5.562 2.646c2.081.458 3.837 1.21 5.268 2.255 1.496.98 2.7 2.156 3.61 3.528.91 1.373 1.561 2.908 1.952 4.607.39 1.7.52 3.43.39 5.195a17.932 17.932 0 0 1-2.147 7.743c-1.235 2.352-2.927 4.41-5.073 6.175-2.146 1.764-4.715 3.137-7.707 4.117-2.927.98-6.179 1.404-9.756 1.274h-1.17a9.436 9.436 0 0 1-3.22 1.862 16.352 16.352 0 0 1-3.22.98c-1.17.262-2.342.36-3.512.294v-1.47c.065-.457.097-.915.097-1.372 0-.523.033-1.046.098-1.568-.78-.13-1.528-.327-2.244-.588a37.733 37.733 0 0 1-2.049-.686 10.962 10.962 0 0 1-1.756-.687c-.26-.392-.455-.882-.585-1.47a12.485 12.485 0 0 1-.293-1.764c0-.588.13-1.274.39-2.058 2.017.784 4.326 1.372 6.927 1.764.13-3.333.228-7.286.293-11.86.13-4.574.195-9.377.195-14.408v-16.76c.065-5.49.097-10.194.097-14.115-1.886.98-3.349 2.32-4.39 4.019-1.04 1.699-1.138 3.855-.292 6.469zm30.048 34.6c.26-2.876-.162-5.163-1.268-6.862-1.105-1.764-2.57-3.071-4.39-3.92-1.756-.916-3.708-1.471-5.854-1.667-2.081-.196-3.967-.229-5.658-.098.13 5.424.227 10.357.292 14.8.065 4.378.13 7.972.195 10.782a19.428 19.428 0 0 0 5.854-.686c1.886-.523 3.577-1.34 5.073-2.45a14.685 14.685 0 0 0 3.903-4.117c1.04-1.7 1.658-3.627 1.853-5.783zM44.097 20.683c-.13 3.332-.195 7.285-.195 11.86 0 4.574.065 9.67.195 15.29v1.568c0 .457.033.947.098 1.47 2.341-.196 4.78-.751 7.317-1.666a28.53 28.53 0 0 0 6.927-3.822c2.146-1.569 3.902-3.398 5.268-5.49a12.933 12.933 0 0 0 2.05-7.056c0-1.96-.521-3.693-1.562-5.195-1.04-1.569-2.439-2.876-4.195-3.921-1.691-1.045-3.675-1.83-5.951-2.352a30.02 30.02 0 0 0-6.927-.784h-1.56c-.456 0-.944.033-1.465.098z" fill="#0065FC"/></svg><style>@media (prefers-color-scheme:light){:root{filter:none}}</style></svg>
